sources/design/Outline/൪.svg

<svg:svg xmlns:cc="http://creativecommons.org/ns#" xmlns:dc="http://purl.org/dc/elements/1.1/" xmlns:inkscape="http://www.inkscape.org/namespaces/inkscape" xmlns:rdf="http://www.w3.org/1999/02/22-rdf-syntax-ns#" xmlns:sodipodi="http://sodipodi.sourceforge.net/DTD/sodipodi-0.dtd" xmlns:svg="http://www.w3.org/2000/svg" xml:space="preserve" width="1000" height="1000" version="1.1" style="clip-rule:evenodd;fill-rule:evenodd;image-rendering:optimizeQuality;shape-rendering:geometricPrecision;text-rendering:geometricPrecision" viewBox="0 0 1000 1000" id="svg10" sodipodi:docname="൪.svg" inkscape:version="1.0.2 (e86c870879, 2021-01-15)"><svg:metadata id="metadata14"><rdf:RDF><cc:Work rdf:about=""><dc:format>image/svg+xml</dc:format><dc:type rdf:resource="http://purl.org/dc/dcmitype/StillImage" /><dc:title /></cc:Work></rdf:RDF></svg:metadata><sodipodi:namedview pagecolor="#ffffff" bordercolor="#666666" borderopacity="1" objecttolerance="10" gridtolerance="10" guidetolerance="10" inkscape:pageopacity="0" inkscape:pageshadow="2" inkscape:window-width="1920" inkscape:window-height="1127" id="namedview12" showgrid="false" inkscape:zoom="0.84890884" inkscape:cx="127.99236" inkscape:cy="453.13189" inkscape:window-x="0" inkscape:window-y="0" inkscape:window-maximized="1" inkscape:current-layer="svg10" showguides="true" inkscape:guide-bbox="true" inkscape:document-rotation="0" inkscape:pagecheckerboard="0"><sodipodi:guide position="0,1000" orientation="0,1" id="guide16" inkscape:label="" inkscape:locked="true" inkscape:color="rgb(0,0,255)" /><sodipodi:guide position="1763.3122,2036.1693" orientation="1000,0" id="guide18" /><sodipodi:guide position="0,200" orientation="0,1" id="guide20" inkscape:label="base" inkscape:locked="true" inkscape:color="rgb(0,0,255)" /><inkscape:grid type="xygrid" id="grid24" originx="-473.37552" originy="-489.69235" /><sodipodi:guide position="0,0" orientation="0,1" id="guide34" inkscape:label="bottom" inkscape:locked="true" inkscape:color="rgb(0,0,255)" /><sodipodi:guide position="225.05109,1693.3186" orientation="0,1" id="guide44" inkscape:label="" inkscape:locked="false" inkscape:color="rgb(0,0,255)" /><sodipodi:guide position="0,900" orientation="0,1" id="guide46" inkscape:label="" inkscape:locked="true" inkscape:color="rgb(0,0,255)" /><sodipodi:guide position="450.525,525.35922" orientation="-1,0" id="guide841" inkscape:label="width" inkscape:locked="false" inkscape:color="rgb(0,0,255)" /></sodipodi:namedview>
 <svg:defs id="defs4"><inkscape:path-effect effect="fillet_chamfer" id="path-effect848" is_visible="true" lpeversion="1" satellites_param="F,0,0,1,0,0,0,1 @ F,0,0,1,0,0,0,1 @ F,0,0,1,0,0,0,1 @ F,0,0,1,0,0,0,1 @ F,0,0,1,0,0,0,1 @ F,0,0,1,0,0,0,1 @ F,0,0,1,0,0,0,1 @ F,0,0,1,0,0,0,1 @ F,0,0,1,0,15.76879,0,1 @ F,0,0,1,0,15.76879,0,1 @ F,0,0,1,0,0,0,1 @ F,0,0,1,0,0,0,1 @ F,0,0,1,0,0,0,1 @ F,0,0,1,0,0,0,1 @ F,0,0,1,0,0,0,1 @ F,0,0,1,0,0,0,1 @ F,0,0,1,0,0,0,1 @ F,0,0,1,0,0,0,1 @ F,0,0,1,0,0,0,1 @ F,0,0,1,0,0,0,1 @ F,0,0,1,0,0,0,1 @ F,0,0,1,0,0,0,1 @ F,0,0,1,0,0,0,1 @ F,0,0,1,0,0,0,1 @ F,0,0,1,0,0,0,1 @ F,0,0,1,0,21.777264,0,1 @ F,0,0,1,0,18.058933,0,1 @ F,0,0,1,0,0,0,1 @ F,0,0,1,0,0,0,1 @ F,0,0,1,0,0,0,1 @ F,0,0,1,0,0,0,1 @ F,0,0,1,0,0,0,1 @ F,0,0,1,0,0,0,1 @ F,0,0,1,0,0,0,1 @ F,0,0,1,0,0,0,1" unit="px" method="auto" mode="F" radius="0" chamfer_steps="1" flexible="false" use_knot_distance="true" apply_no_radius="true" apply_with_radius="true" only_selected="true" hide_knots="false" /><inkscape:path-effect effect="spiro" id="path-effect851" is_visible="true" lpeversion="1" />
  <svg:style type="text/css" id="style2">
   
    .fil0 {fill:#EF7F1A;fill-rule:nonzero}
   
  </svg:style>
 <inkscape:path-effect effect="spiro" id="path-effect1214" is_visible="true" lpeversion="1" /><inkscape:path-effect effect="spiro" id="path-effect1195" is_visible="true" lpeversion="1" /><inkscape:path-effect effect="spiro" id="path-effect992" is_visible="true" lpeversion="1" /><inkscape:path-effect effect="spiro" id="path-effect1060" is_visible="true" lpeversion="1" /><inkscape:path-effect effect="spiro" id="path-effect1047" is_visible="true" lpeversion="1" /><inkscape:path-effect effect="spiro" id="path-effect1085" is_visible="true" lpeversion="1" /><inkscape:path-effect effect="spiro" id="path-effect1286" is_visible="true" lpeversion="1" /><inkscape:path-effect effect="spiro" id="path-effect1305" is_visible="true" lpeversion="1" /></svg:defs>
 
<svg:g id="path1210-6"><svg:path style="color:#000000;clip-rule:nonzero;fill:#1a5fb4;fill-rule:nonzero;stroke-linecap:round;stroke-linejoin:round;-inkscape-stroke:none;paint-order:fill stroke markers;shape-rendering:auto" d="M 231.08789,-101.96094 C 221.70886,-102.73828999999999 211.892,-100.58565999999999 203.8457,-95.332031 C 193.1173,-88.327188 186.16009,-76.19923299999999 184.74219,-63.9375 C 179.51474,-18.731668999999997 174.78612999999999,26.530367 170.28710999999998,71.81445299999999 C 143.42339,65.66745 113.82712,63.989794 84.519531,73.892578 C 49.802602,85.623132 23.56102,111.08143 6.2832031,139.81641 C -12.388663,170.86985 -20.983106,205.5394 -23.896484,239.125 C -26.804295,272.64641 -24.245393,304.68194 -22.148437,334.88281 C -14.044803000000002,451.59339 -8.980237200000001,568.55236 -6.472656200000001,685.6015600000001 C -5.158564500000001,746.94092 -4.546628900000001,808.2950700000001 -4.636718700000001,869.64844 C -4.6546017000000015,881.82744 0.7894179599999989,897.29753 14.347655999999999,905.6210900000001 C 27.905895,913.9446500000001 44.199107,911.7895800000001 55.052734,906.2402300000001 L 149.58594,857.9082 C 174.65775,845.08924 185.32344999999998,816.77298 175.92773,790.7070299999999 C 169.78033,773.65267 164.12291,756.4211999999999 158.96289,739.04297 C 137.21274,665.79144 124.21979999999999,589.5008799999999 115.59374999999999,512.28906 C 110.09595999999999,463.07833999999997 106.82577999999998,415.10171999999994 114.38280999999999,370.29296999999997 C 117.45822999999999,352.05758 122.28891999999999,335.28937999999994 129.90429999999998,321.51953 C 135.46639999999996,311.46234999999996 142.82799999999997,302.84166 150.98242,296.78711 C 149.49389,317.31102 147.91915,337.82905999999997 146.58007999999998,358.36328 C 140.09908,457.74748999999997 135.09704,560.2112999999999 152.61132999999998,662.27734 C 158.3329,695.62029 166.85994,731.937 188.11327999999997,764.63086 C 198.78415999999999,781.04579 212.57880999999998,796.1910799999999 229.89257999999998,807.8457 C 247.30095999999998,819.5640199999999 267.88784,827.42187 290.10352,828.71484 C 321.92112,830.56666 351.26056,818.79559 374.40625,801.28711 C 397.25462,784.0035399999999 413.71064,761.82619 426.56445,739.63281 C 468.98436000000004,666.39063 479.31059000000005,580.52107 471.7832,499.83007999999995 C 464.92418000000004,426.30375999999995 443.66511,354.7131999999999 411.34180000000003,288.90624999999994 C 388.85745000000003,243.13043999999994 360.46225000000004,199.01387999999994 323.53516,161.42968999999994 C 337.05101,102.94741999999994 352.55401,44.92302899999994 370.23437,-12.43554700000007 C 377.54232,-36.143973000000074 363.80329,-62.32497900000007 339.97656,-69.63085900000007 L 240.24023,-100.21289000000007 C 237.29326,-101.11651000000008 234.21423,-101.70182000000007 231.08789,-101.96094000000008 L 231.08789,-101.96094 M 242.13867,-36.873047 L 308.82617,-16.425781 C 295.38491,28.059724000000003 283.06701,72.882474 272.0625,118.03125 C 258.28055,108.46572 243.78667000000002,99.85670400000001 228.5625,92.527344 C 232.77424,49.361264 237.26045,6.222767500000003 242.13867,-36.873047000000014 L 242.13867,-36.873047 M 126.79883,126.98828 C 138.66935999999998,126.74075 151.49527999999998,128.67381 164.45117,132.18555 C 161.46384999999998,164.60923 158.69571,197.05186 156.08203,229.50781 C 148.53086,231.35394 141.04918,233.85187000000002 133.76758,237.3418 C 108.32144000000001,249.53764 89.77392700000001,270.10356 77.398437,292.48047 C 65.148318,314.63068000000004 58.969615000000005,338.07404 55.21875,360.31445 C 46.054244,414.65455000000003 50.298819,468.23455 55.964844,518.95117 C 64.843624,598.4251800000001 78.318698,678.2338100000001 101.44531,756.1210900000001 C 106.49321,773.12174 112.04145000000001,789.9711300000001 117.97852,806.6816400000001 L 55.232422,838.7617200000001 C 55.111171999999996,787.27574 54.616422,735.79073 53.513672,684.3164100000001 C 50.987377,566.3936600000002 45.884844,448.4773500000001 37.708984,330.7265600000001 C 35.594376000000004,300.2714300000001 33.532184,271.3637000000001 35.878906,244.31055000000012 C 38.211571,217.41945000000013 45.094129,191.7045700000001 57.703125,170.73437000000013 C 69.060703,151.84543000000014 85.797603,136.79437000000013 103.72656,130.73633000000012 C 110.77584,128.35444000000012 118.55866,127.16011000000012 126.79883000000001,126.98828000000012 L 126.79883,126.98828 M 222.35742,157.36133 C 234.56568,164.65145 246.30826,172.90901000000002 257.41406,182.09766000000002 C 253.24587,201.32505000000003 249.31688,220.60169000000002 245.5918,239.91992000000002 C 241.83507,238.16694 237.98755,236.53393000000003 234.0332,235.05469000000002 C 228.28781999999998,232.90546000000003 222.31984,231.22420000000002 216.26953,229.79687 C 218.22756,205.64548000000002 220.19099,181.49493 222.35742,157.36133 M 307.71289,234.57617 C 326.86312000000004,259.25822999999997 343.35216,286.57968 357.48828000000003,315.35937 C 386.80439,375.04396 405.91378000000003,439.72054 412.04102,505.40234 C 418.72151,577.01488 408.88792,650.43594 374.64453000000003,709.5605499999999 C 364.32494,727.3783399999999 352.23615,742.8247499999999 338.20898000000005,753.4355499999999 C 324.47914000000003,763.8214399999999 307.93156000000005,769.6511099999999 293.58984000000004,768.8164099999999 C 283.55332000000004,768.2322699999999 272.79056,764.3944999999999 263.39844000000005,758.0722699999999 C 253.91171000000006,751.6863499999998 245.35527000000005,742.6012899999998 238.41797000000005,731.9296899999999 C 224.45496000000006,710.45049 216.95429000000004,682.4687299999999 211.74805000000006,652.1289099999999 C 195.70108000000005,558.6138299999999 200.01903000000007,460.90251999999987 206.45117000000008,362.2675799999999 C 208.00575000000006,338.4286599999999 209.80505000000008,314.6060899999999 211.56250000000009,290.7812499999999 C 212.0421800000001,290.9502999999999 212.5350300000001,291.0716799999999 213.01172000000008,291.2499999999999 C 220.2878800000001,293.9718599999999 227.4147000000001,297.7366899999999 234.3398400000001,302.2968699999999 C 230.7211500000001,323.9249999999999 227.27703000000008,345.5805199999999 224.2148400000001,367.29491999999993 C 212.05372000000008,453.53111999999993 203.7171000000001,544.59574 223.6230500000001,634.53125 C 227.6593500000001,652.76735 233.3295200000001,674.4895300000001 248.5859400000001,694.12891 C 256.2919700000001,704.04878 266.3117300000001,713.04765 279.0156200000001,719.17969 C 291.8830600000001,725.39066 306.8189800000001,728.29669 322.3828100000001,725.61719 C 341.1344100000001,722.38887 355.6526100000001,712.0868800000001 366.16016000000013,700.2617200000001 C 376.4333800000001,688.7002600000001 382.59068000000013,676.1851800000001 387.2578100000001,665.0390600000001 C 412.99841000000015,603.56492 409.9969600000001,536.8193900000001 397.9687500000001,476.6914100000001 C 384.5234800000001,409.4796600000001 358.1536800000001,341.5110200000001 309.2109400000001,288.31055000000003 C 306.05691000000013,284.88214000000005 302.74083000000013,281.51806000000005 299.34766000000013,278.19531000000006 C 301.99166000000014,263.62854000000004 304.8111500000001,249.09392000000005 307.71289000000013,234.57617000000005 L 307.71289,234.57617 M 286.54297,356.39062 C 312.6619,394.56307000000004 329.56567,440.62586 339.13477,488.46094000000005 C 349.82042,541.8776300000001 350.89674,596.53047 331.91406,641.8652300000001 C 328.50817,649.9992400000001 324.91922,656.3448200000001 321.30859,660.4082000000001 C 317.93228999999997,664.20788 314.04861,666.1702200000001 312.20117,666.48828 C 310.71747,666.74372 307.80868,666.45308 305.09766,665.14453 C 302.22310000000004,663.75701 298.87478000000004,661.0612 295.96875,657.3203100000001 C 290.00105,649.6381700000001 285.64531,637.10748 282.20508,621.5644500000001 C 264.94280000000003,543.5730900000001 271.77134,459.7435600000001 283.62695,375.67383000000007 C 284.53475000000003,369.23651000000007 285.58497,362.8207100000001 286.54297,356.39062000000007 L 286.54297,356.39062" id="path8583" /></svg:g></svg:svg>

<svg:svg xmlns:cc="http://creativecommons.org/ns#" xmlns:dc="http://purl.org/dc/elements/1.1/" xmlns:inkscape="http://www.inkscape.org/namespaces/inkscape" xmlns:rdf="http://www.w3.org/1999/02/22-rdf-syntax-ns#" xmlns:sodipodi="http://sodipodi.sourceforge.net/DTD/sodipodi-0.dtd" xmlns:svg="http://www.w3.org/2000/svg" xml:space="preserve" width="1000" height="1000" version="1.1" style="clip-rule:evenodd;fill-rule:evenodd;image-rendering:optimizeQuality;shape-rendering:geometricPrecision;text-rendering:geometricPrecision" viewBox="0 0 1000 1000" id="svg10" sodipodi:docname="൪.svg" inkscape:version="1.0.2 (e86c870879, 2021-01-15)"><svg:metadata id="metadata14"><rdf:RDF><cc:Work rdf:about=""><dc:format>image/svg+xml</dc:format><dc:type rdf:resource="http://purl.org/dc/dcmitype/StillImage" /><dc:title /></cc:Work></rdf:RDF></svg:metadata><sodipodi:namedview pagecolor="#ffffff" bordercolor="#666666" borderopacity="1" objecttolerance="10" gridtolerance="10" guidetolerance="10" inkscape:pageopacity="0" inkscape:pageshadow="2" inkscape:window-width="1920" inkscape:window-height="1127" id="namedview12" showgrid="false" inkscape:zoom="0.84890884" inkscape:cx="127.99236" inkscape:cy="453.13189" inkscape:window-x="0" inkscape:window-y="0" inkscape:window-maximized="1" inkscape:current-layer="svg10" showguides="true" inkscape:guide-bbox="true" inkscape:document-rotation="0" inkscape:pagecheckerboard="0"><sodipodi:guide position="0,1000" orientation="0,1" id="guide16" inkscape:label="" inkscape:locked="true" inkscape:color="rgb(0,0,255)" /><sodipodi:guide position="1763.3122,2036.1693" orientation="1000,0" id="guide18" /><sodipodi:guide position="0,200" orientation="0,1" id="guide20" inkscape:label="base" inkscape:locked="true" inkscape:color="rgb(0,0,255)" /><inkscape:grid type="xygrid" id="grid24" originx="-473.37552" originy="-489.69235" /><sodipodi:guide position="0,0" orientation="0,1" id="guide34" inkscape:label="bottom" inkscape:locked="true" inkscape:color="rgb(0,0,255)" /><sodipodi:guide position="225.05109,1693.3186" orientation="0,1" id="guide44" inkscape:label="" inkscape:locked="false" inkscape:color="rgb(0,0,255)" /><sodipodi:guide position="0,900" orientation="0,1" id="guide46" inkscape:label="" inkscape:locked="true" inkscape:color="rgb(0,0,255)" /><sodipodi:guide position="450.525,525.35922" orientation="-1,0" id="guide841" inkscape:label="width" inkscape:locked="false" inkscape:color="rgb(0,0,255)" /></sodipodi:namedview>
 <svg:defs id="defs4"><inkscape:path-effect effect="fillet_chamfer" id="path-effect848" is_visible="true" lpeversion="1" satellites_param="F,0,0,1,0,0,0,1 @ F,0,0,1,0,0,0,1 @ F,0,0,1,0,0,0,1 @ F,0,0,1,0,0,0,1 @ F,0,0,1,0,0,0,1 @ F,0,0,1,0,0,0,1 @ F,0,0,1,0,0,0,1 @ F,0,0,1,0,0,0,1 @ F,0,0,1,0,15.76879,0,1 @ F,0,0,1,0,15.76879,0,1 @ F,0,0,1,0,0,0,1 @ F,0,0,1,0,0,0,1 @ F,0,0,1,0,0,0,1 @ F,0,0,1,0,0,0,1 @ F,0,0,1,0,0,0,1 @ F,0,0,1,0,0,0,1 @ F,0,0,1,0,0,0,1 @ F,0,0,1,0,0,0,1 @ F,0,0,1,0,0,0,1 @ F,0,0,1,0,0,0,1 @ F,0,0,1,0,0,0,1 @ F,0,0,1,0,0,0,1 @ F,0,0,1,0,0,0,1 @ F,0,0,1,0,0,0,1 @ F,0,0,1,0,0,0,1 @ F,0,0,1,0,21.777264,0,1 @ F,0,0,1,0,18.058933,0,1 @ F,0,0,1,0,0,0,1 @ F,0,0,1,0,0,0,1 @ F,0,0,1,0,0,0,1 @ F,0,0,1,0,0,0,1 @ F,0,0,1,0,0,0,1 @ F,0,0,1,0,0,0,1 @ F,0,0,1,0,0,0,1 @ F,0,0,1,0,0,0,1" unit="px" method="auto" mode="F" radius="0" chamfer_steps="1" flexible="false" use_knot_distance="true" apply_no_radius="true" apply_with_radius="true" only_selected="true" hide_knots="false" /><inkscape:path-effect effect="spiro" id="path-effect851" is_visible="true" lpeversion="1" />
  <svg:style type="text/css" id="style2">
   
    .fil0 {fill:#EF7F1A;fill-rule:nonzero}
   
  </svg:style>
 <inkscape:path-effect effect="spiro" id="path-effect1214" is_visible="true" lpeversion="1" /><inkscape:path-effect effect="spiro" id="path-effect1195" is_visible="true" lpeversion="1" /><inkscape:path-effect effect="spiro" id="path-effect992" is_visible="true" lpeversion="1" /><inkscape:path-effect effect="spiro" id="path-effect1060" is_visible="true" lpeversion="1" /><inkscape:path-effect effect="spiro" id="path-effect1047" is_visible="true" lpeversion="1" /><inkscape:path-effect effect="spiro" id="path-effect1085" is_visible="true" lpeversion="1" /><inkscape:path-effect effect="spiro" id="path-effect1286" is_visible="true" lpeversion="1" /><inkscape:path-effect effect="spiro" id="path-effect1305" is_visible="true" lpeversion="1" /></svg:defs>
 
<svg:g id="path1210-6"><svg:path style="color:#000000;clip-rule:nonzero;fill:#1a5fb4;fill-rule:nonzero;stroke-linecap:round;stroke-linejoin:round;-inkscape-stroke:none;shape-rendering:auto" d="m 231.08789,-101.96094 c -9.37903,-0.77735 -19.19589,1.37528 -27.24219,6.628909 -10.7284,7.004843 -17.68561,19.132798 -19.10351,31.394531 -5.22745,45.205831 -9.95606,90.467867 -14.45508,135.751953 C 143.42339,65.66745 113.82712,63.989794 84.519531,73.892578 49.802602,85.623132 23.56102,111.08143 6.2832031,139.81641 -12.388663,170.86985 -20.983106,205.5394 -23.896484,239.125 c -2.907811,33.52141 -0.348909,65.55694 1.748047,95.75781 8.103634,116.71058 13.1681998,233.66955 15.6757808,350.71875 1.3140917,61.33936 1.9260273,122.69351 1.8359375,184.04688 -0.017883,12.179 5.42613666,27.64909 18.9843747,35.97265 13.558239,8.32356 29.851451,6.16849 40.705078,0.61914 L 149.58594,857.9082 c 25.07181,-12.81896 35.73751,-41.13522 26.34179,-67.20117 -6.1474,-17.05436 -11.80482,-34.28583 -16.96484,-51.66406 -21.75015,-73.25153 -34.74309,-149.54209 -43.36914,-226.75391 -5.49779,-49.21072 -8.76797,-97.18734 -1.21094,-141.99609 3.07542,-18.23539 7.90611,-35.00359 15.52149,-48.77344 5.5621,-10.05718 12.9237,-18.67787 21.07812,-24.73242 -1.48853,20.52391 -3.06327,41.04195 -4.40234,61.57617 -6.481,99.38421 -11.48304,201.84802 6.03125,303.91406 5.72157,33.34295 14.24861,69.65966 35.50195,102.35352 10.67088,16.41493 24.46553,31.56022 41.7793,43.21484 17.40838,11.71832 37.99526,19.57617 60.21094,20.86914 31.8176,1.85182 61.15704,-9.91925 84.30273,-27.42773 22.84837,-17.28357 39.30439,-39.46092 52.1582,-61.6543 42.41991,-73.24218 52.74614,-159.11174 45.21875,-239.80273 -6.85902,-73.52632 -28.11809,-145.11688 -60.4414,-210.92383 -22.48435,-45.77581 -50.87955,-89.89237 -87.80664,-127.47656 13.51585,-58.48227 29.01885,-116.506661 46.69921,-173.865237 7.30795,-23.708426 -6.43108,-49.889432 -30.25781,-57.195312 l -99.73633,-30.582031 c -2.94697,-0.90362 -6.026,-1.48893 -9.15234,-1.74805 z m 11.05078,65.087893 66.6875,20.447266 c -13.44126,44.485505 -25.75916,89.308255 -36.76367,134.457031 -13.78195,-9.56553 -28.27583,-18.174546 -43.5,-25.503906 4.21174,-43.16608 8.69795,-86.3045765 13.57617,-129.400391 z M 126.79883,126.98828 c 11.87053,-0.24753 24.69645,1.68553 37.65234,5.19727 -2.98732,32.42368 -5.75546,64.86631 -8.36914,97.32226 -7.55117,1.84613 -15.03285,4.34406 -22.31445,7.83399 -25.44614,12.19584 -43.993653,32.76176 -56.369143,55.13867 -12.250119,22.15021 -18.428822,45.59357 -22.179687,67.83398 -9.164506,54.3401 -4.919931,107.9201 0.746094,158.63672 8.87878,79.47401 22.353854,159.28264 45.480466,237.16992 5.0479,17.00065 10.59614,33.85004 16.53321,50.56055 l -62.746098,32.08008 c -0.12125,-51.48598 -0.616,-102.97099 -1.71875,-154.44531 -2.526295,-117.92275 -7.628828,-235.83906 -15.804688,-353.58985 -2.114608,-30.45513 -4.1768,-59.36286 -1.830078,-86.41601 2.332665,-26.8911 9.215223,-52.60598 21.824219,-73.57618 11.357578,-18.88894 28.094478,-33.94 46.023435,-39.99804 7.04928,-2.38189 14.8321,-3.57622 23.07227,-3.74805 z m 95.55859,30.37305 c 12.20826,7.29012 23.95084,15.54768 35.05664,24.73633 -4.16819,19.22739 -8.09718,38.50403 -11.82226,57.82226 -3.75673,-1.75298 -7.60425,-3.38599 -11.5586,-4.86523 -5.74538,-2.14923 -11.71336,-3.83049 -17.76367,-5.25782 1.95803,-24.15139 3.92146,-48.30194 6.08789,-72.43554 z m 85.35547,77.21484 c 19.15023,24.68206 35.63927,52.00351 49.77539,80.7832 29.31611,59.68459 48.4255,124.36117 54.55274,190.04297 6.68049,71.61254 -3.1531,145.0336 -37.39649,204.15821 -10.31959,17.81779 -22.40838,33.2642 -36.43555,43.875 -13.72984,10.38589 -30.27742,16.21556 -44.61914,15.38086 -10.03652,-0.58414 -20.79928,-4.42191 -30.1914,-10.74414 -9.48673,-6.38592 -18.04317,-15.47098 -24.98047,-26.14258 -13.96301,-21.4792 -21.46368,-49.46096 -26.66992,-79.80078 -16.04697,-93.51508 -11.72902,-191.22639 -5.29688,-289.86133 1.55458,-23.83892 3.35388,-47.66149 5.11133,-71.48633 0.47968,0.16905 0.97253,0.29043 1.44922,0.46875 7.27616,2.72186 14.40298,6.48669 21.32812,11.04687 -3.61869,21.62813 -7.06281,43.28365 -10.125,64.99805 -12.16112,86.2362 -20.49774,177.30082 -0.59179,267.23633 4.0363,18.2361 9.70647,39.95828 24.96289,59.59766 7.70603,9.91987 17.72579,18.91874 30.42968,25.05078 12.86744,6.21097 27.80336,9.117 43.36719,6.4375 18.7516,-3.22832 33.2698,-13.53031 43.77735,-25.35547 10.27322,-11.56146 16.43052,-24.07654 21.09765,-35.22266 25.7406,-61.47414 22.73915,-128.21967 10.71094,-188.34765 -13.44527,-67.21175 -39.81507,-135.18039 -88.75781,-188.38086 -3.15403,-3.42841 -6.47011,-6.79249 -9.86328,-10.11524 2.644,-14.56677 5.46349,-29.10139 8.36523,-43.61914 z m -21.16992,121.81445 c 26.11893,38.17245 43.0227,84.23524 52.5918,132.07032 10.68565,53.41669 11.76197,108.06953 -7.22071,153.40429 -3.40589,8.13401 -6.99484,14.47959 -10.60547,18.54297 -3.3763,3.79968 -7.25998,5.76202 -9.10742,6.08008 -1.4837,0.25544 -4.39249,-0.0352 -7.10351,-1.34375 -2.87456,-1.38752 -6.22288,-4.08333 -9.12891,-7.82422 -5.9677,-7.68214 -10.32344,-20.21283 -13.76367,-35.75586 -17.26228,-77.99136 -10.43374,-161.82089 1.42187,-245.89062 0.9078,-6.43732 1.95802,-12.85312 2.91602,-19.28321 z" id="path8571" /></svg:g></svg:svg>
